X:1
T:Ach Gott vom Himmel, sieh darein
T:Johann Walter
T:Ach Gott vom Himmel, sieh darein
T:Psalm 12. Salvum me fac
C:Johann Walter
%%score [ 1 2 3 4 ]
L:1/8
Q:1/4=200
M:4/2
K:F
V:1 treble nm="Soprano" snm="S"
V:2 alto nm="Alto" snm="A"
V:3 tenor nm="Tenor" snm="T"
V:4 bass nm="Bass" snm="B"
V:1
 z16 | G16 | B8 A8 | G8 F4 A4- | A2 G2 G8 ^F4 | G12 _E4 | F4 D4 G4 A4 | B8 c2 B2 A2 G2 | %8
w: |Ach|Gott vom|Him- mel, sieh|_ _ _ dar-|ein und|lass dich des er-|bar- * * * *|
 B4 G8 ^F4 | G16 | G16 | B8 A8 | G8 F4 A4- | A2 G2 G8 ^F4 | G12 _E4 | F4 D4 G4 A4 | %16
w: |men.|Wie|we- nig|sind der Heil-|* * * gen|dein, ver-|las- sen sind wir|
 B8 c2 B2 A2 G2 | B4 G8 ^F4 | G16 | z8 z4 G4 | d8 c8 | f8 e8 | d4 B4 A8 | B4 A8 G4- | %24
w: Ar- * * * *||men.|Dein|Wort man|lässt nicht|ha- ben wahr;|der Glaub ist|
 G4 ^F4 G4 G4- | G2 A2 B4 c4 c4 | F8 z4 F4 | B8 B8 | c4 d6 c2 B2 A2 | G4 G8 ^F4 | G16 |] %31
w: _ _ auch ver-|* * * lo- schen|gar bei|al- len|Men- schen _ _ _|_ Kin- *|dern.|
V:2
 z16 | D16 | D8 F8 | B,4 C4 D8 | D4 _E4 D8 | z4 B,8 C4 | D4 B,6 A,2 A,4- | A,2 G,2 G,8 ^F,4 | %8
w: |Ach|Gott vom|Him- * mel,|sieh dar- ein|und lass|_ dich _ des|_ _ _ er-|
 G,4 D4 D8 | z16 | D16 | D8 F8 | B,4 C4 D8 | D4 _E4 D8 | z4 B,8 C4 | D4 B,6 A,2 A,4- | %16
w: bar- * men.||Wie|we- nig|sind _ der|Heil- gen dein,|ver- las-|* sen _ sind|
 A,2 G,2 G,8 ^F,4 | G,4 D4 D8 | z4 D4 C4 C4 | F8 E8 | D4 B,4 C8 | A,4 A8 A4 | F4 D4 F8 | %23
w: _ _ _ wir|Ar- * men.|Dein Wort man|lässt nicht|ha- * ben|wahr; der Glaub|_ _ _|
 z4 F4 D4 _E4 | D8 G,4 D4 | _E4 D8 C4 | D8 z4 D4 | D8 D8 | F12 D4- | D4 C4 D8 | D16 |] %31
w: ist _ _|auch ver- lo-|* * schen|gar bei|al- len|Men- schen|_ _ Kin-|dern.|
V:3
 z16 | G,16 | G,8 D,8 | G,8 A,8 | B,4 C4 A,8 | G,8 z4 G,4 | B,8 C8 | D8 C8 | B,8 A,8 | G,16 | %10
w: |Ach|Gott vom|Him- mel,|sieh _ dar-|ein und|lass dich|des er-|bar- *|men.|
 G,16 | G,8 D,8 | G,8 A,8 | B,4 C4 A,8 | G,8 z4 G,4 | B,8 C8 | D8 C8 | B,8 A,8 | G,8 z4 G,4 | %19
w: Wie|we- nig|sind der|Heil- * gen|dein, ver-|las- sen|sind wir|Ar- *|men. Dein|
 D8 C8 | F8 E8 | D8 C8 | D8 z4 D4 | D8 B,8 | A,8 B,8 | G,8 A,8 | D,8 z4 D,4 | F,8 G,8 | A,8 D8 | %29
w: Wort man|lässt nicht|ha- ben|wahr; der|Glaub ist|auch ver-|lo- schen|gar bei|al- len|Men- schen|
 B,4 G,4 A,8 | G,16 |] %31
w: Kin- * *|dern.|
V:4
 z16 | G,16 | G,8 F,8 | _E,8 D,4 F,4 | G,4 C,4 D,8 | z4 _E,6 D,2 C,4 | B,,4 D,4 C,8 | %7
w: |Ach|Gott vom|Him- mel, _|sieh dar- ein|und _ _|lass _ dich|
 B,,4 A,,2 G,,2 A,,8 | G,,8 D,8 | G,,16 | G,16 | G,8 F,8 | _E,8 D,4 F,4 | G,4 C,4 D,8 | %14
w: des _ _ er-|bar- *|men.|Wie|we- nig|sind der _|Heil- gen dein,|
 z4 _E,6 D,2 C,4 | B,,4 D,4 C,8 | B,,4 A,,2 G,,2 A,,8 | G,,8 D,8 | G,,8 z4 C,4 | B,,8 C,8 | %20
w: ver- * *|las- * sen|sind _ _ wir|Ar- *|men. Dein|Wort man|
 D,6 C,2 A,,4 A,4 | F,4 D,4 A,8 | D,4 G,4 F,4 D,4- | D,2 E,2 F,4 G,8 | D,8 z4 B,,4 | %25
w: lässt _ _ nicht|ha- * ben|wahr; der Glaub ist|_ _ _ auch|_ ver-|
 C,4 B,,4 A,,8 | B,,8 z4 B,,4 | B,,8 G,,4 G,4 | F,4 D,8 G,4- | G,2 F,2 _E,4 D,8 | G,,16 |] %31
w: lo- * schen|gar bei|al- * len|Men- schen Kin-||dern.|

